!! 00000] TT[00
!! NN
!!!OTL: Shange,manzai gurou qing
!!!ARE: Asia, China,ÿTaiwan, Xinzhu
!! Ethnic Group: Han, Kejia
!! IV, 620
!!!SCT: C0443
!!!YEM: Copyright 1995, estate of Helmut Schaffrath.
**kern
*ICvox
*Ivox
*M2/4
*k[f#]
*G:
{8b
4.ee
=1
8b
8ee
4b
=2
8b
4.e}
=3
{8ee
8b
8ee
8b
=4
8e
4g
24b
24g
24e
=5
2e}
=6
{8b
4ee
8b
=7
8e
16g
16b
4e}
=8
{4.B
8e
=9
8b
16g
16b
8g
8e}
=10
{8d#
4.e
=11
8.e
16d
4B
=12
8e
4.r}
=13
{8ee
8b
4ee
=14
8b
8ee
4b
=15
8b
4.e}
=16
{8ee
16b
16ee
4b
=17
8b
4g
8d#
=18
2e}
=19
{8b
4ee
8b
=20
8e
16b
16g
4e}
=21
{8e
4.B
=22
8ee
8b
8gg
8ee}
=23
{8dd#
4ee
24dd
24ee
24dd
=24
8.ee
16dd#
8b
8dd
=25
2ee}
==
!!!AGN: Shange, Kejia shange, Shange,zai)
!! Die Kejia stammen aus Fujian und Guangdong. Dieses Lied ist von
!!    Taiwan bis Guangdong verbreitet. Die 1 ist manchmal leicht,
!!    manchmal tatsaechlich um 1/2 Ton erhoeht, manachmal auch gar nicht.
!!    Wenig Verzierungen, Glissandi.
!!!ONB: ESAC (Essen Associative Code) Database: CHINA
!!!AMT: simple duple
!!!AIN: vox
!!!EED: Helmut Schaffrath
!!!EEV: 1.0
*-
